X:1
T:J.S. Bach: Presto
K:C
M:3/8
L:1/16
g _bgdgd|_Bd_BG_BG|DGD_B,D_B,|G,_B,DG_Bd|
gdc_BAG|^FD^FAd^f|a _edc_BA|GDG_Bdg|
_bg_ec_eg|afd_Bdf|g_ecAc_e|Dg^fgac|
GcBcdF | CfefgB | FBABc_E | B,_edef_A|

